X: 1
T: Flail, The
M: 6/8
L: 1/8
R: jig
K: Gmaj
DEG GAB|Bdg gab|age ege|dBG AGE|
DEG GAB|Bdg gab|age ege|dBG A3:|
~a3 aga|ega ega|deg ged|ged BAG|
DEG GAB|Bdg gab|age ege|dBG A3:|
